X: 071
T: Miss Colston's Strathspey
R: strathspey
M: C|
L: 1/16
Z: 2012 John Chambers <jc:trillian.mit.edu>
B: J. Anderson "Budget of Strathspeys, Reels and Country Dances" (Early 1800s) p.7 #1
F: http://imslp.org/wiki/Anderson%27s_Budget_of_Strathspeys,_Reels_and_Country_Dances_(Various)
K: Am
d2 | (cde2) (A2e2) c2e2a2e2 | g3de3c (Bcd2) (G3d) | c3eA3e c3ea3e | g3d (ed)(cB) c2A2A2 :|
a2 | e3ac'3a (e2a2)(c'2a2) | g3bd3g B2G2 BcdB | e3ac'2a2 e3ac'2a2 | e3a ^gabg (a2A2)(A2a2) |
     e3ac'2a2 e3ac'2a2 | g3be3g B3G d3B | (cde2) (A2e2) c3ea3e | g3d edcB c2A2A2 |]

%%sep 2 1 500
%%sep 1 1 500

